X:1
T:Title
L:1/8
Q:1/4=90
M:4/4
K:Bb
V:1 treble nm="Church Organ, Staff"
V:1
 F2 cd c2 A2 | F2 c2- c/ z/ d c2 | A2 d2 cB A2 | c2 G6 | C2 FG A2 B2 | cd e4 d2 | =e2 f2 d2 =B2 | %7
w: By~T.~Tertius~Noble * * * *|||||||
 =B2 c6 | F2 dc B2 cB | A2 B2 cd e2 | d2 c2 A2 c2 | d2 G6 | F2 GA B2 A2 | c2 e4 d2 | B2 A2 F2 BA | %15
w: ||||||||
 G2 F6 |] %16
w: |

